X: 1
T:The Skye Boat Song
M:6/8
L:1/8
Q:80
C:
S:Slow March
K:HP
|: | {g}A3/2{d}B/2{e}A{Gdc}d3/2c/2d|
{g}e3/2f/2{g}e{ag}a3|
{fg}f3/2{g}e/2f{g}B2{GdGe}B|  !
{g}A3{GAG}A3:| |
{g}f{g}d/2f{gfg}f3|
{gef}e3/2{g}c/2e{gef}e2|  !
{Gdc}d{g}B/2d{gdc}d2c|
{g}B3{GdGe}B3/2|
{g}f{g}d/2c{gfg}f3|  !
{gef}e3/2{g}B/2e{gef}e3|
{Gdc}d3/2B/2c{Gdc}d2c|
{g}B3{GdGe}B3|]  !
